X: 1
T: Cambo March, The
Z: ceolachan
S: https://thesession.org/tunes/6389#setting6389
R: barndance
M: 4/4
L: 1/8
K: Gmaj
|: B>c |
d2 d>d d2 d2 | g4 B3 B/c/ | d2 d>d d2 ^cd | A2 cB A2 Bc |
d2 d>d d2 d2 | g4 B3 B/c/ | d3 A/B/ c3 E/F/ | G2 G>G G2 :|
|: d>d |
d2 D>D D2 d>d | d2 G>G G2 g2 | gbgd BdBG | d2 D>D Ddef |
g2 d2 BdBd | g2 e2 cece | d2 B2 c2 A>F | G2 g>g g2 :|
|: DG |
B4 G/A/G/F/ G>e | d4 B4 | A>^GA>B c>A F2 | G>FG>B D2 d>c |
B4 G>FG>e | d4 B4 | A>^GA>B c>A F2 | G>FG>B G2 :|
|: FG |
A3 B c>A F2 | G>FG>B d3 B | A^GAB dcEF | G>FG>B d2 c2 |
B4 (3BAB (3GBd | e4- e g/f/ (3age | (3dcd (3edB (3A^GA c>F | A4 G2 :|
